icon-svg/pool-disolved.svg

<svg xmlns="http://www.w3.org/2000/svg" fill="#44739e" viewBox="0 0 24 24"><path d="M14.959 8.2A.055.055 0 0 0 15 8.183a.52.52 0 0 0 .118-.141.74.74 0 0 0 .076-.184.13.13 0 0 0-.043-.142c-.039-.023-.083 0-.1.06A.43.43 0 0 1 15 7.9a.35.35 0 0 1-.076.1.125.125 0 0 0-.039.1c-.002.05.032.1.074.1m-2.231 2.4a.06.06 0 0 0 .037-.015.53.53 0 0 0 .117-.141.68.68 0 0 0 .076-.185.128.128 0 0 0-.043-.141c-.039-.023-.083 0-.1.06a.43.43 0 0 1-.052.122.37.37 0 0 1-.076.1.124.124 0 0 0-.039.1c.003.053.038.1.08.1m2.917 2.772a.055.055 0 0 0 .037-.015.53.53 0 0 0 .117-.141.67.67 0 0 0 .076-.184.127.127 0 0 0-.042-.141c-.039-.023-.083 0-.1.06a.46.46 0 0 1-.052.122.39.39 0 0 1-.076.1.122.122 0 0 0-.039.1c.002.051.034.1.079.099m1.802-3.293a.055.055 0 0 0 .037-.015.51.51 0 0 0 .117-.141.7.7 0 0 0 .077-.184.128.128 0 0 0-.043-.141c-.039-.023-.083 0-.1.06a.43.43 0 0 1-.052.122.37.37 0 0 1-.076.1.125.125 0 0 0-.039.1c.002.051.037.1.079.099m1.559 3.029c-.039-.022-.083 0-.1.061a.43.43 0 0 1-.052.122.37.37 0 0 1-.076.1.124.124 0 0 0-.039.1c0 .06.035.108.077.108a.06.06 0 0 0 .037-.015.53.53 0 0 0 .118-.141.75.75 0 0 0 .076-.185.131.131 0 0 0-.041-.15m-6.991-9.244a8.116 8.116 0 1 0 8.116 8.116 8.115 8.115 0 0 0-8.116-8.116m-5.742 8.187a.624.624 0 0 1-.516.335.4.4 0 0 1-.076 0 .65.65 0 0 1-.442-.328 1.06 1.06 0 0 1-.12-.278 1.38 1.38 0 0 1-.05-.371 5.72 5.72 0 0 1 .686-1.789 5.74 5.74 0 0 1 .685 1.78 1.274 1.274 0 0 1-.167.651m1.218-2.987a1.04 1.04 0 0 1-.12-.278 1.3 1.3 0 0 1-.05-.371 5.74 5.74 0 0 1 .685-1.789 5.72 5.72 0 0 1 .686 1.789 1.264 1.264 0 0 1-.168.647.623.623 0 0 1-.515.335.4.4 0 0 1-.077-.005.651.651 0 0 1-.441-.328M8.93 15.82a.625.625 0 0 1-.516.335.4.4 0 0 1-.076-.005.65.65 0 0 1-.442-.328 1.06 1.06 0 0 1-.12-.278 1.35 1.35 0 0 1-.05-.371 5.72 5.72 0 0 1 .686-1.789 5.74 5.74 0 0 1 .688 1.789 1.274 1.274 0 0 1-.17.647m1.283-4.087a.625.625 0 0 1-.516.335.4.4 0 0 1-.076 0 .65.65 0 0 1-.442-.328 1.06 1.06 0 0 1-.12-.278 1.35 1.35 0 0 1-.05-.372A5.72 5.72 0 0 1 9.7 9.3a5.74 5.74 0 0 1 .685 1.788 1.275 1.275 0 0 1-.172.645m1.213-4.521a.4.4 0 0 1-.076 0 .644.644 0 0 1-.442-.328 1.04 1.04 0 0 1-.12-.278 1.35 1.35 0 0 1-.05-.371 5.72 5.72 0 0 1 .686-1.789 5.74 5.74 0 0 1 .685 1.789 1.274 1.274 0 0 1-.167.647.625.625 0 0 1-.516.33M13.054 15a.623.623 0 0 1-.515.335.5.5 0 0 1-.076-.006.646.646 0 0 1-.442-.329 1.05 1.05 0 0 1-.12-.279 1.3 1.3 0 0 1-.05-.371 5.72 5.72 0 0 1 .686-1.788 5.74 5.74 0 0 1 .685 1.788 1.265 1.265 0 0 1-.168.65m0-4.329a.623.623 0 0 1-.515.335.5.5 0 0 1-.076-.006.646.646 0 0 1-.442-.327 1.05 1.05 0 0 1-.12-.279 1.3 1.3 0 0 1-.05-.371 5.7 5.7 0 0 1 .686-1.788 5.72 5.72 0 0 1 .685 1.788 1.265 1.265 0 0 1-.168.643zm1.2-2.4a1.06 1.06 0 0 1-.119-.278 1.35 1.35 0 0 1-.051-.372 5.74 5.74 0 0 1 .686-1.788 5.74 5.74 0 0 1 .685 1.788 1.265 1.265 0 0 1-.167.648.623.623 0 0 1-.516.335.4.4 0 0 1-.076-.005.65.65 0 0 1-.444-.334Zm1.719 5.172a.623.623 0 0 1-.515.335.4.4 0 0 1-.076-.006.646.646 0 0 1-.442-.327 1.05 1.05 0 0 1-.12-.279 1.3 1.3 0 0 1-.05-.371A5.74 5.74 0 0 1 15.453 11a5.72 5.72 0 0 1 .686 1.788 1.265 1.265 0 0 1-.168.649zm1.8-3.293a.624.624 0 0 1-.516.335.4.4 0 0 1-.076-.006.646.646 0 0 1-.442-.327 1.05 1.05 0 0 1-.12-.279 1.37 1.37 0 0 1-.05-.371 5.72 5.72 0 0 1 .686-1.788 5.74 5.74 0 0 1 .686 1.786 1.275 1.275 0 0 1-.167.644zm.855 3.847a.5.5 0 0 1-.076-.006.646.646 0 0 1-.442-.327 1.05 1.05 0 0 1-.12-.279 1.38 1.38 0 0 1-.05-.371 5.7 5.7 0 0 1 .686-1.788 5.72 5.72 0 0 1 .685 1.788 1.27 1.27 0 0 1-.167.647.622.622 0 0 1-.515.33zM11.8 6.33c-.039-.022-.083 0-.1.06a.44.44 0 0 1-.052.123.38.38 0 0 1-.076.1.123.123 0 0 0-.039.095c0 .061.035.109.077.109a.067.067 0 0 0 .037-.015.53.53 0 0 0 .117-.141.71.71 0 0 0 .077-.185.13.13 0 0 0-.041-.146m-5.854 5.657a.06.06 0 0 0 .037-.016.53.53 0 0 0 .118-.14.75.75 0 0 0 .076-.185.13.13 0 0 0-.043-.142c-.039-.022-.083 0-.1.06a.42.42 0 0 1-.052.122.37.37 0 0 1-.076.1.123.123 0 0 0-.039.1c.002.053.033.101.079.101m3.94-.319a.055.055 0 0 0 .037-.015.51.51 0 0 0 .117-.141.7.7 0 0 0 .077-.184.13.13 0 0 0-.043-.142c-.039-.023-.083 0-.1.06a.42.42 0 0 1-.052.122.35.35 0 0 1-.076.1.125.125 0 0 0-.039.1c.002.052.037.101.079.1M8.6 15.756a.06.06 0 0 0 .037-.016.5.5 0 0 0 .117-.141.7.7 0 0 0 .077-.184.13.13 0 0 0-.043-.142c-.039-.023-.083 0-.1.06a.42.42 0 0 1-.052.122.35.35 0 0 1-.076.1.127.127 0 0 0-.039.1c.005.052.04.101.079.101m4.128-.826a.055.055 0 0 0 .037-.015.53.53 0 0 0 .117-.141.69.69 0 0 0 .076-.184.128.128 0 0 0-.043-.141c-.039-.023-.083 0-.1.06a.43.43 0 0 1-.052.122.37.37 0 0 1-.076.1.125.125 0 0 0-.039.1c.003.051.038.1.08.099M8.2 9a.06.06 0 0 0 .037-.016.53.53 0 0 0 .117-.14.68.68 0 0 0 .076-.185.128.128 0 0 0-.042-.142c-.039-.022-.084 0-.1.06a.47.47 0 0 1-.052.123.4.4 0 0 1-.076.1.122.122 0 0 0-.038.095C8.121 8.95 8.155 9 8.2 9M12 2a10 10 0 1 0 10 10A10 10 0 0 0 12 2m0 18.766a8.787 8.787 0 1 1 8.786-8.786A8.786 8.786 0 0 1 12 20.766"/></svg>

<?xml version="1.0" encoding="UTF-8"?>
<svg width="24px" fill="#44739e" height="24px" viewBox="0 0 24 24" version="1.1" xmlns="http://www.w3.org/2000/svg" xmlns:xlink="http://www.w3.org/1999/xlink">
            <path d="M 14.959,8.2 A 0.055,0.055 0 0 0 15,8.183 0.515,0.515 0 0 0 15.118,8.042 0.741,0.741 0 0 0 15.194,7.858 v 0 A 0.13,0.13 0 0 0 15.151,7.716 c -0.039,-0.023 -0.083,0 -0.1,0.06 A 0.432,0.432 0 0 1 15,7.9 0.351,0.351 0 0 1 14.924,8 v 0 a 0.125,0.125 0 0 0 -0.039,0.1 c -0.002,0.05 0.032,0.1 0.074,0.1 z m -2.231,2.4 a 0.06,0.06 0 0 0 0.037,-0.015 0.527,0.527 0 0 0 0.117,-0.141 0.679,0.679 0 0 0 0.076,-0.185 v 0 a 0.128,0.128 0 0 0 -0.043,-0.141 c -0.039,-0.023 -0.083,0 -0.1,0.06 a 0.432,0.432 0 0 1 -0.052,0.122 0.367,0.367 0 0 1 -0.076,0.1 v 0 a 0.124,0.124 0 0 0 -0.039,0.1 c 0.003,0.053 0.038,0.1 0.08,0.1 z m 2.917,2.772 a 0.055,0.055 0 0 0 0.037,-0.015 0.53,0.53 0 0 0 0.117,-0.141 0.672,0.672 0 0 0 0.076,-0.184 v 0 a 0.127,0.127 0 0 0 -0.042,-0.141 c -0.039,-0.023 -0.083,0 -0.1,0.06 a 0.463,0.463 0 0 1 -0.052,0.122 0.388,0.388 0 0 1 -0.076,0.1 v 0 a 0.122,0.122 0 0 0 -0.039,0.1 c 0.002,0.051 0.034,0.1 0.079,0.099 z m 1.802,-3.293 a 0.055,0.055 0 0 0 0.037,-0.015 0.512,0.512 0 0 0 0.117,-0.141 0.706,0.706 0 0 0 0.077,-0.184 v 0 A 0.128,0.128 0 0 0 17.635,9.598 c -0.039,-0.023 -0.083,0 -0.1,0.06 a 0.432,0.432 0 0 1 -0.052,0.122 0.367,0.367 0 0 1 -0.076,0.1 v 0 a 0.125,0.125 0 0 0 -0.039,0.1 c 0.002,0.051 0.037,0.1 0.079,0.099 z m 1.559,3.029 c -0.039,-0.022 -0.083,0 -0.1,0.061 a 0.432,0.432 0 0 1 -0.052,0.122 0.367,0.367 0 0 1 -0.076,0.1 v 0 a 0.124,0.124 0 0 0 -0.039,0.1 c 0,0.06 0.035,0.108 0.077,0.108 a 0.06,0.06 0 0 0 0.037,-0.015 0.53,0.53 0 0 0 0.118,-0.141 0.748,0.748 0 0 0 0.076,-0.185 v 0 a 0.131,0.131 0 0 0 -0.041,-0.15 z M 12.015,3.864 a 8.116,8.116 0 1 0 8.116,8.116 8.115,8.115 0 0 0 -8.116,-8.116 z m -5.742,8.187 a 0.624,0.624 0 0 1 -0.516,0.335 0.389,0.389 0 0 1 -0.076,0 A 0.65,0.65 0 0 1 5.239,12.058 1.057,1.057 0 0 1 5.119,11.78 1.384,1.384 0 0 1 5.069,11.409 5.715,5.715 0 0 1 5.755,9.62 5.736,5.736 0 0 1 6.44,11.4 1.274,1.274 0 0 1 6.273,12.051 Z M 7.491,9.064 A 1.043,1.043 0 0 1 7.371,8.786 1.308,1.308 0 0 1 7.321,8.415 5.736,5.736 0 0 1 8.006,6.626 5.715,5.715 0 0 1 8.692,8.415 1.264,1.264 0 0 1 8.524,9.062 0.623,0.623 0 0 1 8.009,9.397 0.4,0.4 0 0 1 7.932,9.392 0.651,0.651 0 0 1 7.491,9.064 Z M 8.93,15.82 A 0.625,0.625 0 0 1 8.414,16.155 0.383,0.383 0 0 1 8.338,16.15 0.65,0.65 0 0 1 7.896,15.822 1.057,1.057 0 0 1 7.776,15.544 1.345,1.345 0 0 1 7.726,15.173 5.715,5.715 0 0 1 8.412,13.384 5.736,5.736 0 0 1 9.1,15.173 1.274,1.274 0 0 1 8.93,15.82 Z m 1.283,-4.087 a 0.625,0.625 0 0 1 -0.516,0.335 0.383,0.383 0 0 1 -0.076,0 A 0.65,0.65 0 0 1 9.179,11.74 1.057,1.057 0 0 1 9.059,11.462 1.347,1.347 0 0 1 9.009,11.09 5.719,5.719 0 0 1 9.7,9.3 a 5.74,5.74 0 0 1 0.685,1.788 1.275,1.275 0 0 1 -0.172,0.645 z m 1.213,-4.521 a 0.383,0.383 0 0 1 -0.076,0 0.644,0.644 0 0 1 -0.442,-0.328 1.043,1.043 0 0 1 -0.12,-0.278 1.345,1.345 0 0 1 -0.05,-0.371 5.715,5.715 0 0 1 0.686,-1.789 5.736,5.736 0 0 1 0.685,1.789 1.274,1.274 0 0 1 -0.167,0.647 0.625,0.625 0 0 1 -0.516,0.33 z M 13.054,15 A 0.623,0.623 0 0 1 12.539,15.335 0.477,0.477 0 0 1 12.463,15.329 0.646,0.646 0 0 1 12.021,15 1.05,1.05 0 0 1 11.901,14.721 1.3,1.3 0 0 1 11.851,14.35 5.719,5.719 0 0 1 12.537,12.562 5.74,5.74 0 0 1 13.222,14.35 1.265,1.265 0 0 1 13.054,15 Z m 0,-4.329 A 0.623,0.623 0 0 1 12.539,11.006 0.477,0.477 0 0 1 12.463,11 a 0.646,0.646 0 0 1 -0.442,-0.327 1.05,1.05 0 0 1 -0.12,-0.279 1.3,1.3 0 0 1 -0.05,-0.371 5.7,5.7 0 0 1 0.686,-1.788 5.722,5.722 0 0 1 0.685,1.788 1.265,1.265 0 0 1 -0.168,0.643 z m 1.2,-2.4 A 1.055,1.055 0 0 1 14.135,7.993 1.347,1.347 0 0 1 14.084,7.621 5.744,5.744 0 0 1 14.77,5.833 5.74,5.74 0 0 1 15.455,7.621 1.265,1.265 0 0 1 15.288,8.269 0.623,0.623 0 0 1 14.772,8.604 0.389,0.389 0 0 1 14.696,8.599 0.65,0.65 0 0 1 14.252,8.265 Z m 1.719,5.172 A 0.623,0.623 0 0 1 15.458,13.778 0.384,0.384 0 0 1 15.382,13.772 0.646,0.646 0 0 1 14.94,13.445 1.05,1.05 0 0 1 14.82,13.166 1.3,1.3 0 0 1 14.77,12.795 5.74,5.74 0 0 1 15.453,11 a 5.719,5.719 0 0 1 0.686,1.788 1.265,1.265 0 0 1 -0.168,0.649 z m 1.8,-3.293 a 0.624,0.624 0 0 1 -0.516,0.335 0.39,0.39 0 0 1 -0.076,-0.006 0.646,0.646 0 0 1 -0.442,-0.327 1.05,1.05 0 0 1 -0.12,-0.279 1.373,1.373 0 0 1 -0.05,-0.371 5.719,5.719 0 0 1 0.686,-1.788 5.74,5.74 0 0 1 0.686,1.786 1.275,1.275 0 0 1 -0.167,0.644 z m 0.855,3.847 a 0.487,0.487 0 0 1 -0.076,-0.006 0.646,0.646 0 0 1 -0.442,-0.327 1.05,1.05 0 0 1 -0.12,-0.279 1.379,1.379 0 0 1 -0.05,-0.371 5.7,5.7 0 0 1 0.686,-1.788 5.722,5.722 0 0 1 0.685,1.788 1.271,1.271 0 0 1 -0.167,0.647 0.622,0.622 0 0 1 -0.515,0.33 z M 11.8,6.33 c -0.039,-0.022 -0.083,0 -0.1,0.06 a 0.438,0.438 0 0 1 -0.052,0.123 0.384,0.384 0 0 1 -0.076,0.1 v 0 a 0.123,0.123 0 0 0 -0.039,0.095 c 0,0.061 0.035,0.109 0.077,0.109 a 0.067,0.067 0 0 0 0.037,-0.015 0.527,0.527 0 0 0 0.117,-0.141 0.713,0.713 0 0 0 0.077,-0.185 v 0 A 0.13,0.13 0 0 0 11.8,6.33 Z m -5.854,5.657 a 0.061,0.061 0 0 0 0.037,-0.016 0.528,0.528 0 0 0 0.118,-0.14 0.748,0.748 0 0 0 0.076,-0.185 v 0 A 0.13,0.13 0 0 0 6.134,11.504 c -0.039,-0.022 -0.083,0 -0.1,0.06 a 0.42,0.42 0 0 1 -0.052,0.122 0.372,0.372 0 0 1 -0.076,0.1 v 0 a 0.123,0.123 0 0 0 -0.039,0.1 c 0.002,0.053 0.033,0.101 0.079,0.101 z m 3.94,-0.319 a 0.055,0.055 0 0 0 0.037,-0.015 0.512,0.512 0 0 0 0.117,-0.141 0.706,0.706 0 0 0 0.077,-0.184 v 0 a 0.13,0.13 0 0 0 -0.043,-0.142 c -0.039,-0.023 -0.083,0 -0.1,0.06 a 0.42,0.42 0 0 1 -0.052,0.122 0.351,0.351 0 0 1 -0.076,0.1 v 0 a 0.125,0.125 0 0 0 -0.039,0.1 c 0.002,0.052 0.037,0.101 0.079,0.1 z M 8.6,15.756 A 0.061,0.061 0 0 0 8.637,15.74 0.5,0.5 0 0 0 8.754,15.599 0.706,0.706 0 0 0 8.831,15.415 v 0 A 0.13,0.13 0 0 0 8.788,15.273 c -0.039,-0.023 -0.083,0 -0.1,0.06 a 0.42,0.42 0 0 1 -0.052,0.122 0.351,0.351 0 0 1 -0.076,0.1 v 0 a 0.127,0.127 0 0 0 -0.039,0.1 c 0.005,0.052 0.04,0.101 0.079,0.101 z m 4.128,-0.826 a 0.055,0.055 0 0 0 0.037,-0.015 0.527,0.527 0 0 0 0.117,-0.141 0.685,0.685 0 0 0 0.076,-0.184 v 0 a 0.128,0.128 0 0 0 -0.043,-0.141 c -0.039,-0.023 -0.083,0 -0.1,0.06 a 0.432,0.432 0 0 1 -0.052,0.122 0.367,0.367 0 0 1 -0.076,0.1 v 0 a 0.125,0.125 0 0 0 -0.039,0.1 c 0.003,0.051 0.038,0.1 0.08,0.099 z M 8.2,9 A 0.061,0.061 0 0 0 8.237,8.984 0.525,0.525 0 0 0 8.354,8.844 0.679,0.679 0 0 0 8.43,8.659 v 0 A 0.128,0.128 0 0 0 8.388,8.517 c -0.039,-0.022 -0.084,0 -0.1,0.06 A 0.47,0.47 0 0 1 8.236,8.7 0.408,0.408 0 0 1 8.16,8.8 v 0 A 0.122,0.122 0 0 0 8.122,8.895 C 8.121,8.95 8.155,9 8.2,9 Z M 12,2 A 10,10 0 1 0 22,12 10,10 0 0 0 12,2 Z m 0,18.766 A 8.787,8.787 0 1 1 20.786,11.98 8.786,8.786 0 0 1 12,20.766 Z"/>

</svg>
